X: 30662
T: Open Fence, The
R: reel
M: 4/4
K: Emajor
|:E2 BA GE E2|B,EGE CEAc|B2 Bc BGEG|FEFG FBAF|
B2 BA GE E2|B,EGE CEAc|BABc defg|1 afdf e4:|2 afdf e2||
|:ga|b2 ba ge e2|ceac Bega|b2 ba geeg|fgag fBdf|
[1 b2 ba ge e2|ceac Bege|abag fedc|Bbaf e2:|
[2 egbe dfbB|AceA GBeg|abag fedc|Bbaf e4||

